img/deletar_hover.svg

<?xml version="1.0" encoding="UTF-8" standalone="no"?>
<svg
   xmlns:dc="http://purl.org/dc/elements/1.1/"
   xmlns:cc="http://creativecommons.org/ns#"
   xmlns:rdf="http://www.w3.org/1999/02/22-rdf-syntax-ns#"
   xmlns:svg="http://www.w3.org/2000/svg"
   xmlns="http://www.w3.org/2000/svg"
   xmlns:sodipodi="http://sodipodi.sourceforge.net/DTD/sodipodi-0.dtd"
   xmlns:inkscape="http://www.inkscape.org/namespaces/inkscape"
   version="1.2"
   width="5.01mm"
   height="6.91mm"
   viewBox="0 0 501 691"
   preserveAspectRatio="xMidYMid"
   fill-rule="evenodd"
   stroke-width="28.222"
   stroke-linejoin="round"
   xml:space="preserve"
   id="svg4221"
   sodipodi:docname="deletar_hover.svg"
   inkscape:version="0.92.5 (2060ec1f9f, 2020-04-08)"><metadata
   id="metadata4225"><rdf:RDF><cc:Work
       rdf:about=""><dc:format>image/svg+xml</dc:format><dc:type
         rdf:resource="http://purl.org/dc/dcmitype/StillImage" /><dc:title></dc:title></cc:Work></rdf:RDF></metadata><sodipodi:namedview
   pagecolor="#ffffff"
   bordercolor="#666666"
   borderopacity="1"
   objecttolerance="10"
   gridtolerance="10"
   guidetolerance="10"
   inkscape:pageopacity="0"
   inkscape:pageshadow="2"
   inkscape:window-width="1366"
   inkscape:window-height="703"
   id="namedview4223"
   showgrid="false"
   showguides="true"
   inkscape:guide-bbox="true"
   inkscape:lockguides="false"
   inkscape:zoom="18.989051"
   inkscape:cx="9.4677174"
   inkscape:cy="13.058267"
   inkscape:window-x="0"
   inkscape:window-y="0"
   inkscape:window-maximized="1"
   inkscape:current-layer="svg4221"
   inkscape:snap-bbox="true"
   inkscape:snap-nodes="true"><sodipodi:guide
     position="0,0"
     orientation="0,18.935434"
     id="guide5198"
     inkscape:locked="false" /><sodipodi:guide
     position="501.00001,0"
     orientation="-26.116535,0"
     id="guide5200"
     inkscape:locked="false" /><sodipodi:guide
     position="501.00001,690.99996"
     orientation="0,-18.935434"
     id="guide5202"
     inkscape:locked="false" /><sodipodi:guide
     position="0,690.99996"
     orientation="26.116535,0"
     id="guide5204"
     inkscape:locked="false" /></sodipodi:namedview>
 <defs
   class="EmbeddedBulletChars"
   id="defs4199">
  <g
   id="bullet-char-template-57356"
   transform="scale(0.00048828125,-0.00048828125)">
   <path
   d="M 580,1141 L 1163,571 580,0 -4,571 580,1141 Z"
   id="path4169" />
  </g>
  <g
   id="bullet-char-template-57354"
   transform="scale(0.00048828125,-0.00048828125)">
   <path
   d="M 8,1128 L 1137,1128 1137,0 8,0 8,1128 Z"
   id="path4172" />
  </g>
  <g
   id="bullet-char-template-10146"
   transform="scale(0.00048828125,-0.00048828125)">
   <path
   d="M 174,0 L 602,739 174,1481 1456,739 174,0 Z M 1358,739 L 309,1346 659,739 1358,739 Z"
   id="path4175" />
  </g>
  <g
   id="bullet-char-template-10132"
   transform="scale(0.00048828125,-0.00048828125)">
   <path
   d="M 2015,739 L 1276,0 717,0 1260,543 174,543 174,936 1260,936 717,1481 1274,1481 2015,739 Z"
   id="path4178" />
  </g>
  <g
   id="bullet-char-template-10007"
   transform="scale(0.00048828125,-0.00048828125)">
   <path
   d="M 0,-2 C -7,14 -16,27 -25,37 L 356,567 C 262,823 215,952 215,954 215,979 228,992 255,992 264,992 276,990 289,987 310,991 331,999 354,1012 L 381,999 492,748 772,1049 836,1024 860,1049 C 881,1039 901,1025 922,1006 886,937 835,863 770,784 769,783 710,716 594,584 L 774,223 C 774,196 753,168 711,139 L 727,119 C 717,90 699,76 672,76 641,76 570,178 457,381 L 164,-76 C 142,-110 111,-127 72,-127 30,-127 9,-110 8,-76 1,-67 -2,-52 -2,-32 -2,-23 -1,-13 0,-2 Z"
   id="path4181" />
  </g>
  <g
   id="bullet-char-template-10004"
   transform="scale(0.00048828125,-0.00048828125)">
   <path
   d="M 285,-33 C 182,-33 111,30 74,156 52,228 41,333 41,471 41,549 55,616 82,672 116,743 169,778 240,778 293,778 328,747 346,684 L 369,508 C 377,444 397,411 428,410 L 1163,1116 C 1174,1127 1196,1133 1229,1133 1271,1133 1292,1118 1292,1087 L 1292,965 C 1292,929 1282,901 1262,881 L 442,47 C 390,-6 338,-33 285,-33 Z"
   id="path4184" />
  </g>
  <g
   id="bullet-char-template-9679"
   transform="scale(0.00048828125,-0.00048828125)">
   <path
   d="M 813,0 C 632,0 489,54 383,161 276,268 223,411 223,592 223,773 276,916 383,1023 489,1130 632,1184 813,1184 992,1184 1136,1130 1245,1023 1353,916 1407,772 1407,592 1407,412 1353,268 1245,161 1136,54 992,0 813,0 Z"
   id="path4187" />
  </g>
  <g
   id="bullet-char-template-8226"
   transform="scale(0.00048828125,-0.00048828125)">
   <path
   d="M 346,457 C 273,457 209,483 155,535 101,586 74,649 74,723 74,796 101,859 155,911 209,963 273,989 346,989 419,989 480,963 531,910 582,859 608,796 608,723 608,648 583,586 532,535 482,483 420,457 346,457 Z"
   id="path4190" />
  </g>
  <g
   id="bullet-char-template-8211"
   transform="scale(0.00048828125,-0.00048828125)">
   <path
   d="M -4,459 L 1135,459 1135,606 -4,606 -4,459 Z"
   id="path4193" />
  </g>
  <g
   id="bullet-char-template-61548"
   transform="scale(0.00048828125,-0.00048828125)">
   <path
   d="M 173,740 C 173,903 231,1043 346,1159 462,1274 601,1332 765,1332 928,1332 1067,1274 1183,1159 1299,1043 1357,903 1357,740 1357,577 1299,437 1183,322 1067,206 928,148 765,148 601,148 462,206 346,322 231,437 173,577 173,740 Z"
   id="path4196" />
  </g>
 
  
  
 
   
  
    
    
    
    
    
   </defs>
 <g
   id="g4204"
   class="com.sun.star.drawing.CustomShape">
   <g
   id="id3">
    <rect
   style="fill:none;stroke:none"
   id="rect4201"
   height="691"
   width="501"
   y="0"
   x="0"
   class="BoundingBox" />
   </g>
  </g><path
   style="fill:#611729;stroke:none;fill-opacity:1"
   inkscape:connector-curvature="0"
   id="path4208"
   d="m 252,461 c 0,-70 56,-123 126,-123 14,0 27,3 41,7 L 429,220 H 34 l 31,368 c 3,40 39,71 78,71 h 177 c 40,0 74,-31 77,-71 v -5 c -5,3 -12,3 -19,3 -70,0 -126,-57 -126,-125 z" /><path
   style="fill:#611729;stroke:none;fill-opacity:1"
   inkscape:connector-curvature="0"
   id="path4210"
   d="m 378,364 c -53,0 -96,45 -96,97 0,53 44,95 96,95 55,0 96,-42 96,-95 0,-52 -43,-97 -96,-97 z m 48,124 c 5,4 5,13 0,20 -4,2 -7,3 -10,3 -4,0 -7,-1 -12,-3 l -26,-27 -26,27 c -4,2 -8,3 -10,3 -5,0 -8,-1 -12,-3 -5,-7 -5,-16 0,-20 l 27,-27 -27,-27 c -5,-7 -5,-15 0,-20 6,-7 15,-7 22,0 l 26,27 26,-27 c 7,-7 16,-7 22,0 5,5 5,13 0,20 l -26,27 z" /><path
   style="fill:#611729;stroke:none;fill-opacity:1"
   inkscape:connector-curvature="0"
   id="path4212"
   d="m 201,59 h 62 c 14,0 27,12 27,27 v 17 h 28 V 86 C 318,54 293,30 263,30 h -62 c -32,0 -57,24 -57,56 v 17 h 30 V 86 c 0,-15 11,-27 27,-27 z" /><path
   style="fill:#611729;stroke:none;fill-opacity:1"
   inkscape:connector-curvature="0"
   id="path4214"
   d="m 437,166 c 0,-19 -15,-33 -33,-33 H 58 c -18,0 -33,14 -33,33 v 25 h 412 z" />
<rect
   id="rect4274"
   width="501.00003"
   height="691"
   x="0"
   y="4.8166048e-06"
   style="stroke-width:0.10000006;fill:none;stroke:#000000;stroke-miterlimit:4;stroke-dasharray:none" /><path
   style="opacity:0;fill:#ff0000;fill-opacity:1;stroke:#000000;stroke-width:0.00019901;stroke-miterlimit:4;stroke-dasharray:none"
   d="M 4.666895,24.780293 C 3.6965757,24.519316 2.8651557,23.712709 2.5856714,22.761185 2.5296772,22.570549 2.3094995,20.18066 1.9235127,15.573873 1.605464,11.777933 1.3344158,8.595157 1.3211834,8.5010374 L 1.2971243,8.3299109 h 7.4533405 7.4533412 l -0.0316,0.2764351 c -0.01738,0.1520393 -0.10468,1.2001805 -0.193995,2.329203 -0.08931,1.129022 -0.166677,2.056585 -0.171916,2.061251 -0.0052,0.0047 -0.187235,-0.03998 -0.404434,-0.09922 -0.525401,-0.143288 -1.698492,-0.156345 -2.223976,-0.02476 -0.948692,0.237569 -1.733358,0.672415 -2.364313,1.310253 -1.4952355,1.511547 -1.7352259,3.969836 -0.562875,5.765697 0.865969,1.326533 2.224855,2.115365 3.808479,2.21082 0.319163,0.01924 0.607059,0.0093 0.730974,-0.02527 l 0.204431,-0.05701 -0.03357,0.285613 c -0.132856,1.130392 -1.018108,2.123465 -2.165269,2.42899 -0.40216,0.107107 -7.7263376,0.09663 -8.128845,-0.01163 z"
   id="path5505"
   inkscape:connector-curvature="0"
   transform="scale(26.458333)" /></svg>

<?xml version="1.0" encoding="UTF-8"?>
<!DOCTYPE svg PUBLIC "-//W3C//DTD SVG 1.1//EN" "http://www.w3.org/Graphics/SVG/1.1/DTD/svg11.dtd">
<svg version="1.2" width="5.01mm" height="6.91mm" viewBox="0 0 501 691" preserveAspectRatio="xMidYMid" fill-rule="evenodd" stroke-width="28.222" stroke-linejoin="round" xmlns="http://www.w3.org/2000/svg" xmlns:ooo="http://xml.openoffice.org/svg/export" xmlns:xlink="http://www.w3.org/1999/xlink" xmlns:presentation="http://sun.com/xmlns/staroffice/presentation" xmlns:smil="http://www.w3.org/2001/SMIL20/" xmlns:anim="urn:oasis:names:tc:opendocument:xmlns:animation:1.0" xml:space="preserve">
 <defs class="EmbeddedBulletChars">
  <g id="bullet-char-template-57356" transform="scale(0.00048828125,-0.00048828125)">
   <path d="M 580,1141 L 1163,571 580,0 -4,571 580,1141 Z"/>
  </g>
  <g id="bullet-char-template-57354" transform="scale(0.00048828125,-0.00048828125)">
   <path d="M 8,1128 L 1137,1128 1137,0 8,0 8,1128 Z"/>
  </g>
  <g id="bullet-char-template-10146" transform="scale(0.00048828125,-0.00048828125)">
   <path d="M 174,0 L 602,739 174,1481 1456,739 174,0 Z M 1358,739 L 309,1346 659,739 1358,739 Z"/>
  </g>
  <g id="bullet-char-template-10132" transform="scale(0.00048828125,-0.00048828125)">
   <path d="M 2015,739 L 1276,0 717,0 1260,543 174,543 174,936 1260,936 717,1481 1274,1481 2015,739 Z"/>
  </g>
  <g id="bullet-char-template-10007" transform="scale(0.00048828125,-0.00048828125)">
   <path d="M 0,-2 C -7,14 -16,27 -25,37 L 356,567 C 262,823 215,952 215,954 215,979 228,992 255,992 264,992 276,990 289,987 310,991 331,999 354,1012 L 381,999 492,748 772,1049 836,1024 860,1049 C 881,1039 901,1025 922,1006 886,937 835,863 770,784 769,783 710,716 594,584 L 774,223 C 774,196 753,168 711,139 L 727,119 C 717,90 699,76 672,76 641,76 570,178 457,381 L 164,-76 C 142,-110 111,-127 72,-127 30,-127 9,-110 8,-76 1,-67 -2,-52 -2,-32 -2,-23 -1,-13 0,-2 Z"/>
  </g>
  <g id="bullet-char-template-10004" transform="scale(0.00048828125,-0.00048828125)">
   <path d="M 285,-33 C 182,-33 111,30 74,156 52,228 41,333 41,471 41,549 55,616 82,672 116,743 169,778 240,778 293,778 328,747 346,684 L 369,508 C 377,444 397,411 428,410 L 1163,1116 C 1174,1127 1196,1133 1229,1133 1271,1133 1292,1118 1292,1087 L 1292,965 C 1292,929 1282,901 1262,881 L 442,47 C 390,-6 338,-33 285,-33 Z"/>
  </g>
  <g id="bullet-char-template-9679" transform="scale(0.00048828125,-0.00048828125)">
   <path d="M 813,0 C 632,0 489,54 383,161 276,268 223,411 223,592 223,773 276,916 383,1023 489,1130 632,1184 813,1184 992,1184 1136,1130 1245,1023 1353,916 1407,772 1407,592 1407,412 1353,268 1245,161 1136,54 992,0 813,0 Z"/>
  </g>
  <g id="bullet-char-template-8226" transform="scale(0.00048828125,-0.00048828125)">
   <path d="M 346,457 C 273,457 209,483 155,535 101,586 74,649 74,723 74,796 101,859 155,911 209,963 273,989 346,989 419,989 480,963 531,910 582,859 608,796 608,723 608,648 583,586 532,535 482,483 420,457 346,457 Z"/>
  </g>
  <g id="bullet-char-template-8211" transform="scale(0.00048828125,-0.00048828125)">
   <path d="M -4,459 L 1135,459 1135,606 -4,606 -4,459 Z"/>
  </g>
  <g id="bullet-char-template-61548" transform="scale(0.00048828125,-0.00048828125)">
   <path d="M 173,740 C 173,903 231,1043 346,1159 462,1274 601,1332 765,1332 928,1332 1067,1274 1183,1159 1299,1043 1357,903 1357,740 1357,577 1299,437 1183,322 1067,206 928,148 765,148 601,148 462,206 346,322 231,437 173,577 173,740 Z"/>
  </g>
 </defs>
 <g class="Page">
  <g class="com.sun.star.drawing.CustomShape">
   <g id="id3">
    <rect class="BoundingBox" stroke="none" fill="none" x="0" y="0" width="501" height="691"/>
   </g>
  </g>
  <g class="Graphic">
   <g id="id4">
    <rect class="BoundingBox" stroke="none" fill="none" x="11" y="16" width="479" height="659"/>
    <path fill="rgb(97,23,41)" stroke="none" d="M 252,461 C 252,391 308,338 378,338 392,338 405,341 419,345 L 429,220 34,220 65,588 C 68,628 104,659 143,659 L 320,659 C 360,659 394,628 397,588 L 397,583 C 392,586 385,586 378,586 308,586 252,529 252,461 L 252,461 Z"/>
    <path fill="rgb(97,23,41)" stroke="none" d="M 378,364 C 325,364 282,409 282,461 282,514 326,556 378,556 433,556 474,514 474,461 474,409 431,364 378,364 L 378,364 Z M 426,488 C 431,492 431,501 426,508 422,510 419,511 416,511 412,511 409,510 404,508 L 378,481 352,508 C 348,510 344,511 342,511 337,511 334,510 330,508 325,501 325,492 330,488 L 357,461 330,434 C 325,427 325,419 330,414 336,407 345,407 352,414 L 378,441 404,414 C 411,407 420,407 426,414 431,419 431,427 426,434 L 400,461 426,488 426,488 Z"/>
    <path fill="rgb(97,23,41)" stroke="none" d="M 201,59 L 263,59 C 277,59 290,71 290,86 L 290,103 318,103 318,86 C 318,54 293,30 263,30 L 201,30 C 169,30 144,54 144,86 L 144,103 174,103 174,86 C 174,71 185,59 201,59 L 201,59 Z"/>
    <path fill="rgb(97,23,41)" stroke="none" d="M 437,166 C 437,147 422,133 404,133 L 58,133 C 40,133 25,147 25,166 L 25,191 437,191 437,166 437,166 Z"/>
   </g>
  </g>
 </g>
</svg>
